ExpEYES17/UserManual/fr/rst/exp/schematics/sr04-dist.svg

<?xml version="1.0" encoding="UTF-8" standalone="no"?>
<svg
   xmlns:dc="http://purl.org/dc/elements/1.1/"
   xmlns:cc="http://creativecommons.org/ns#"
   xmlns:rdf="http://www.w3.org/1999/02/22-rdf-syntax-ns#"
   xmlns:svg="http://www.w3.org/2000/svg"
   xmlns="http://www.w3.org/2000/svg"
   xmlns:sodipodi="http://sodipodi.sourceforge.net/DTD/sodipodi-0.dtd"
   xmlns:inkscape="http://www.inkscape.org/namespaces/inkscape"
   version="1.1"
   id="sr04-dist"
   width="100%"
   height="100%"
   viewBox="-6 -6 566 342"
   sodipodi:docname="sr04-dist.svg"
   inkscape:export-filename="/home/georgesk/developpement/expeyes/expeyes/ExpEYES17/UserManual/fr/rst/exp/schematics/sr04-dist.png"
   inkscape:export-xdpi="51.245552"
   inkscape:export-ydpi="51.245552"
   inkscape:version="0.92.2 (5c3e80d, 2017-08-06)">
  <metadata
     id="metadata93">
    <rdf:RDF>
      <cc:Work
         rdf:about="">
        <dc:format>image/svg+xml</dc:format>
        <dc:type
           rdf:resource="http://purl.org/dc/dcmitype/StillImage" />
        <dc:title></dc:title>
      </cc:Work>
    </rdf:RDF>
  </metadata>
  <defs
     id="defs91" />
  <sodipodi:namedview
     pagecolor="#ffffff"
     bordercolor="#666666"
     borderopacity="1"
     objecttolerance="10"
     gridtolerance="10"
     guidetolerance="10"
     inkscape:pageopacity="0"
     inkscape:pageshadow="2"
     inkscape:window-width="1668"
     inkscape:window-height="1013"
     id="namedview89"
     showgrid="false"
     inkscape:zoom="1.8975265"
     inkscape:cx="283"
     inkscape:cy="171"
     inkscape:window-x="0"
     inkscape:window-y="0"
     inkscape:window-maximized="1"
     inkscape:current-layer="sr04-dist" />
  <desc
     id="desc2">
XCircuit Version 3.7
File &quot;sr04-dist.ps&quot; Page 1
</desc>
  <path
     style="fill:none;stroke:#000000;stroke-width:2;stroke-linecap:round;stroke-linejoin:bevel"
     inkscape:connector-curvature="0"
     id="path4"
     d="m 448,64 v 256 h 96 V 64 Z" />
  <text
     font-size="40"
     id="text8"
     style="font-size:40px;font-family:Helvetica;fill:#000000;stroke:none"
     transform="rotate(90)"
     x="108.22125"
     y="-481.42001">
    <tspan
       x="108.22125"
       y="-481.42001"
       id="tspan6">HY-SR04</tspan>
  </text>
  <text
     font-size="40"
     id="text14"
     style="font-size:40px;font-family:Helvetica;fill:#000000;stroke:none"
     x="326.88"
     y="82.000031">
    <tspan
       x="326.88"
       y="82.000031"
       id="tspan12">+5V</tspan>
  </text>
  <text
     font-size="40"
     id="text20"
     style="font-size:40px;font-family:Helvetica;fill:#000000;stroke:none"
     x="327.84"
     y="290">
    <tspan
       x="327.84"
       y="290"
       id="tspan18">GND</tspan>
  </text>
  <text
     font-size="40"
     id="text26"
     style="font-size:40px;font-family:Helvetica;fill:#000000;stroke:none"
     x="328.76001"
     y="151.53334">
    <tspan
       x="328.76001"
       y="151.53334"
       id="tspan24">TRIG</tspan>
  </text>
  <text
     font-size="40"
     id="text32"
     style="font-size:40px;font-family:Helvetica;fill:#000000;stroke:none"
     x="326"
     y="220.76668">
    <tspan
       x="326"
       y="220.76668"
       id="tspan30">ECHO</tspan>
  </text>
  <text
     font-size="40"
     id="text38"
     style="font-size:40px;font-family:Helvetica;fill:#000000;stroke:none"
     x="95.267189"
     y="62.279999">
    <tspan
       x="95.267189"
       y="62.279999"
       id="tspan36">5V</tspan>
  </text>
  <text
     font-size="40"
     id="text44"
     style="font-size:40px;font-family:Helvetica;fill:#000000;stroke:none"
     x="59.779999"
     y="302.57999">
    <tspan
       x="59.779999"
       y="302.57999"
       id="tspan42">GND</tspan>
  </text>
  <path
     style="fill:none;stroke:#000000;stroke-width:2;stroke-linecap:round;stroke-linejoin:bevel"
     inkscape:connector-curvature="0"
     id="path48"
     d="m 80,16 v 64 h 80 V 16 Z" />
  <path
     style="fill:none;stroke:#000000;stroke-width:2;stroke-linecap:round;stroke-linejoin:bevel"
     inkscape:connector-curvature="0"
     id="path50"
     d="m 48,256 v 64 h 112 v -64 z" />
  <path
     style="fill:none;stroke:#000000;stroke-width:2;stroke-linecap:round;stroke-linejoin:bevel"
     inkscape:connector-curvature="0"
     id="path52"
     d="m 64,96 v 64 h 96 V 96 Z" />
  <text
     font-size="40"
     id="text56"
     style="font-size:40px;font-family:Helvetica;fill:#000000;stroke:none"
     x="71.91375"
     y="141.86">
    <tspan
       x="71.91375"
       y="141.86"
       id="tspan54">SQ2</tspan>
  </text>
  <path
     style="fill:none;stroke:#000000;stroke-width:2;stroke-linecap:round;stroke-linejoin:bevel"
     inkscape:connector-curvature="0"
     id="path60"
     d="m 48,176 v 64 h 112 v -64 z" />
  <text
     font-size="40"
     id="text64"
     style="font-size:40px;font-family:Helvetica;fill:#000000;stroke:none"
     x="71.779999"
     y="222.58">
    <tspan
       x="71.779999"
       y="222.58"
       id="tspan62">IN2</tspan>
  </text>
  <path
     style="fill:none;stroke:#000000;stroke-width:2;stroke-linecap:round;stroke-linejoin:bevel"
     inkscape:connector-curvature="0"
     id="path68"
     d="M 0,336 V 0 h 560 v 336 z" />
  <path
     style="fill:none;stroke:#000000;stroke-width:2;stroke-linecap:round;stroke-linejoin:bevel"
     inkscape:connector-curvature="0"
     id="path70"
     d="M 448,96 H 336" />
  <path
     style="fill:none;stroke:#000000;stroke-width:2;stroke-linecap:round;stroke-linejoin:bevel"
     inkscape:connector-curvature="0"
     id="path72"
     d="M 448,234.66666 H 336" />
  <path
     style="fill:none;stroke:#000000;stroke-width:2;stroke-linecap:round;stroke-linejoin:bevel"
     inkscape:connector-curvature="0"
     id="path74"
     d="M 336,165.33333 H 448" />
  <path
     style="fill:none;stroke:#000000;stroke-width:2;stroke-linecap:round;stroke-linejoin:bevel"
     inkscape:connector-curvature="0"
     id="path76"
     d="M 336,304 H 448" />
  <path
     style="fill:none;stroke:#000000;stroke-width:2;stroke-linecap:round;stroke-linejoin:bevel"
     inkscape:connector-curvature="0"
     id="path78"
     d="m 336,304 c -36.70019,17.91806 -80,32 -176,-16"
     sodipodi:nodetypes="cc" />
  <path
     style="fill:none;stroke:#000000;stroke-width:2;stroke-linecap:round;stroke-linejoin:bevel"
     inkscape:connector-curvature="0"
     id="path80"
     d="M 336,234.66666 C 301.40782,247.84171 238.79888,250.83426 160,208"
     sodipodi:nodetypes="cc" />
  <path
     style="fill:none;stroke:#000000;stroke-width:2;stroke-linecap:round;stroke-linejoin:bevel"
     inkscape:connector-curvature="0"
     id="path82"
     d="M 336,165.33333 C 296.6648,177.98137 272,192 160,128"
     sodipodi:nodetypes="cc" />
  <path
     style="fill:none;stroke:#000000;stroke-width:2;stroke-linecap:round;stroke-linejoin:bevel"
     inkscape:connector-curvature="0"
     id="path84"
     d="m 160,48 c 16,0 96,-32 176,48" />
</svg>

<svg xmlns="http://www.w3.org/2000/svg"
   xmlns:xlink="http://www.w3.org/1999/xlink"
   version="1.1"
   id="sr04-dist" width="100%" height="100%"  viewBox="-6 -6 566 342">
<desc>
XCircuit Version 3.7
File "sr04-dist.ps" Page 1
</desc>
<g stroke="black">
<path d="M448,64 L448,320 544,320 544,64 z" fill="none" stroke-width="2" stroke-linejoin="bevel" stroke-linecap="round" stroke="#000000" />
<g transform="matrix(3.8965e-12    1   -1 3.8965e-12 480  96)" fill="#000000" >
<text stroke="none" font-family="Helvetica" font-size="40" ><tspan x="0" y="0">HY-SR04</tspan>
</text></g>
<g transform="matrix(   1    0   -0    1 352  80)" fill="#000000" >
<text stroke="none" font-family="Helvetica" font-size="40" ><tspan x="0" y="0">+5V</tspan>
</text></g>
<g transform="matrix(   1    0   -0    1 352 288)" fill="#000000" >
<text stroke="none" font-family="Helvetica" font-size="40" ><tspan x="0" y="0">GND</tspan>
</text></g>
<g transform="matrix(   1    0   -0    1 336 144)" fill="#000000" >
<text stroke="none" font-family="Helvetica" font-size="40" ><tspan x="0" y="0">TRIG</tspan>
</text></g>
<g transform="matrix(   1    0   -0    1 336 224)" fill="#000000" >
<text stroke="none" font-family="Helvetica" font-size="40" ><tspan x="0" y="0">ECHO</tspan>
</text></g>
<g transform="matrix(   1    0   -0    1  96  64)" fill="#000000" >
<text stroke="none" font-family="Helvetica" font-size="40" ><tspan x="0" y="0">5V</tspan>
</text></g>
<g transform="matrix(   1    0   -0    1  64 304)" fill="#000000" >
<text stroke="none" font-family="Helvetica" font-size="40" ><tspan x="0" y="0">GND</tspan>
</text></g>
<path d="M80,16 L80,80 160,80 160,16 z" fill="none" stroke-width="2" stroke-linejoin="bevel" stroke-linecap="round" stroke="#000000" />
<path d="M48,256 L48,320 160,320 160,256 z" fill="none" stroke-width="2" stroke-linejoin="bevel" stroke-linecap="round" stroke="#000000" />
<path d="M64,96 L64,160 160,160 160,96 z" fill="none" stroke-width="2" stroke-linejoin="bevel" stroke-linecap="round" stroke="#000000" />
<g transform="matrix(   1    0   -0    1  64 144)" fill="#000000" >
<text stroke="none" font-family="Helvetica" font-size="40" ><tspan x="0" y="0">SQ2</tspan>
</text></g>
<path d="M48,176 L48,240 160,240 160,176 z" fill="none" stroke-width="2" stroke-linejoin="bevel" stroke-linecap="round" stroke="#000000" />
<g transform="matrix(   1    0   -0    1  80 208)" fill="#000000" >
<text stroke="none" font-family="Helvetica" font-size="40" ><tspan x="0" y="0">IN2</tspan>
</text></g>
<path d="M0,336 L0,0 560,0 560,336 z" fill="none" stroke-width="2" stroke-linejoin="bevel" stroke-linecap="round" stroke="#000000" />
<path d="M448,96 L336,96 " fill="none" stroke-width="2" stroke-linejoin="bevel" stroke-linecap="round" stroke="#000000" />
<path d="M448,240 L336,240 " fill="none" stroke-width="2" stroke-linejoin="bevel" stroke-linecap="round" stroke="#000000" />
<path d="M336,160 L448,160 " fill="none" stroke-width="2" stroke-linejoin="bevel" stroke-linecap="round" stroke="#000000" />
<path d="M336,304 L448,304 " fill="none" stroke-width="2" stroke-linejoin="bevel" stroke-linecap="round" stroke="#000000" />
<path d="M336,304 C352,304 256,336 160,288 " fill="none" stroke-width="2" stroke-linejoin="bevel" stroke-linecap="round" stroke="#000000" />
<path d="M336,240 C352,240 272,176 160,208 " fill="none" stroke-width="2" stroke-linejoin="bevel" stroke-linecap="round" stroke="#000000" />
<path d="M336,160 C352,160 272,192 160,128 " fill="none" stroke-width="2" stroke-linejoin="bevel" stroke-linecap="round" stroke="#000000" />
<path d="M160,48 C176,48 256,16 336,96 " fill="none" stroke-width="2" stroke-linejoin="bevel" stroke-linecap="round" stroke="#000000" />
</g>
</svg>
